dist/svg/static/weblink-small.svg

<svg xmlns="http://www.w3.org/2000/svg" width="24" height="24" viewBox="0 0 24 24"><path d="M19.845 20.457L16.726 12.8m-1.803 4.351l1.803-4.351 4.351 1.802" fill="none" stroke="currentColor" stroke-miterlimit="10"/><path d="M16.082 7.006h1.228l1.085 2.701.995-2.701h1.288l1.017 2.701 1.1-2.701H24l-1.683 3.838h-1.265l-1.026-2.626-.987 2.626h-1.272zm-8.041 0H9.27l1.084 2.701.996-2.701h1.288l1.017 2.701 1.1-2.701h1.205l-1.684 3.838H13.01l-1.025-2.626-.987 2.626H9.726zM0 7.006h1.228l1.084 2.701.996-2.701h1.288l1.017 2.701 1.1-2.701h1.205l-1.684 3.838H4.97L3.944 8.218l-.987 2.626H1.685z" fill="currentColor"/></svg>

<?xml version="1.0" encoding="UTF-8" standalone="no"?>
<svg width="24px" height="24px" viewBox="0 0 24 24" version="1.1" xmlns="http://www.w3.org/2000/svg" xmlns:xlink="http://www.w3.org/1999/xlink">
    <!-- Generator: sketchtool 46.2 (44496) - http://www.bohemiancoding.com/sketch -->
    <title>weblink-small</title>
    <desc>Created with sketchtool.</desc>
    <defs></defs>
    <g id="icons-published" stroke="none" stroke-width="1" fill="none" fill-rule="evenodd">
        <g id="briefing" transform="translate(-356.000000, -2458.000000)"></g>
        <g id="weblink-small">
            <path d="M19.8,20.5 L16.7,12.8 M14.9,17.2 L16.7,12.8 L21.1,14.6" id="Shape" stroke="#000000"></path>
            <path d="M16.1,7 L17.3,7 L18.4,9.7 L19.4,7 L20.7,7 L21.7,9.7 L22.8,7 L24,7 L22.3,10.8 L21,10.8 L20,8.2 L19,10.8 L17.7,10.8 L16.1,7 Z M8,7 L9.2,7 L10.3,9.7 L11.3,7 L12.6,7 L13.6,9.7 L14.8,7 L16,7 L14.3,10.8 L13,10.8 L12,8.2 L11,10.8 L9.7,10.8 L8,7 Z M0,7 L1.2,7 L2.3,9.7 L3.3,7 L4.6,7 L5.6,9.7 L6.7,7 L7.9,7 L6.2,10.8 L5,10.8 L4,8.2 L3,10.8 L1.7,10.8 L0,7 Z" id="Shape" fill="#000000" fill-rule="nonzero"></path>
        </g>
    </g>
</svg>
